static/assets/images/networks/ton.svg

<svg width="256" height="256" viewBox="0 0 256 256" fill="none" xmlns="http://www.w3.org/2000/svg">
<path d="M128 256C198.692 256 256 198.692 256 128C256 57.3075 198.692 0 128 0C57.3075 0 0 57.3075 0 128C0 198.692 57.3075 256 128 256Z" fill="#0088CC"/>
<path fill-rule="evenodd" clip-rule="evenodd" d="M70.9046 62.5H185.682C190.068 62.5 193.616 63.265 198.11 65.4258C202.69 67.6278 205.542 69.2772 208.316 73.5005C211.44 78.2568 212 82.9804 212 88.1004C212 92.4891 211.269 96.8777 208.345 101.266L135.969 225.611C134.507 228.537 131.583 230 127.928 230C125.003 230 122.079 228.537 119.886 225.611L48.9727 101.266C47.5106 98.3406 44.9786 93.9664 44.5863 88.8319C44.1638 83.3018 45.3173 79.3231 47.5105 74.9345C49.7037 70.5459 52.7322 67.8184 57.818 65.3173C62.2927 63.1167 67.9804 62.5 70.9046 62.5ZM119.155 80.0546H70.9046C67.9804 80.0546 67.5581 79.8165 65.7871 80.786C64.3703 81.5616 63.6025 82.2753 62.8629 83.7118C62.1962 85.0066 62.2698 85.7083 62.2698 87.0215C62.2698 87.724 62.8629 88.8319 64.325 91.7576L119.155 186.845V80.0546ZM136.7 80.0546V187.576L192.261 91.7576C192.992 90.2948 192.992 88.8319 192.992 87.369C192.992 85.9061 192.984 84.9764 192.261 83.7118C191.66 82.6596 191.53 82.2489 190.068 81.5175C188.606 80.786 187.144 80.786 184.951 80.786H136.7V80.0546Z" fill="white"/>
</svg>

<svg xmlns="http://www.w3.org/2000/svg" fill="none" viewBox="0 0 256 256"><path fill="#08C" d="M128 256c70.692 0 128-57.308 128-128S198.692 0 128 0 0 57.308 0 128s57.308 128 128 128"/><path fill="#fff" fill-rule="evenodd" d="M70.905 62.5h114.777c4.386 0 7.934.765 12.428 2.926 4.58 2.202 7.432 3.851 10.206 8.075C211.44 78.257 212 82.98 212 88.1c0 4.388-.731 8.777-3.655 13.165L135.969 225.61c-1.462 2.926-4.386 4.389-8.041 4.389-2.925 0-5.849-1.463-8.042-4.389L48.973 101.266c-1.462-2.925-3.994-7.3-4.387-12.434-.422-5.53.731-9.509 2.925-13.897 2.193-4.39 5.221-7.117 10.307-9.618 4.475-2.2 10.162-2.817 13.087-2.817m48.25 17.555h-48.25c-2.925 0-3.347-.239-5.118.731-1.417.776-2.185 1.49-2.924 2.926-.667 1.295-.593 1.996-.593 3.31 0 .702.593 1.81 2.055 4.736l54.83 95.087zm17.545 0v107.521l55.561-95.818c.731-1.463.731-2.926.731-4.389s-.008-2.393-.731-3.657c-.601-1.052-.731-1.463-2.193-2.195s-2.924-.731-5.117-.731H136.7z" clip-rule="evenodd"/></svg>
